X:89
T:Gan Ainm
R:Reel
S:Seamus Quinn, Fermanagh (fiddle)
D:Session tape - Buncrana 1979
H:Follows The Donegal Reel
Z:Bernie Stocks
M:4/4
K:A
ed || cA(3.A.A.A e2cd | eaga fedc | dB(3.B.B.B f2Bf | fefg afed |
cA(3.A.A.A e2cd | eaga fedc | defg a3e | ceae cAA2 ::
e2ce Aece | aAgA fAeA | f2df Bfdf | bBaB gBfB |
(3efece fecd | eaga fedc | defg a3e | ceae cAA2 ||
<end>
<start>
